X:44
T:All Hands Hoy
M:C |
L:1/8
B:Thompson's Compleat Collection of 200 Favourite Country Dances, vol. 2 (London, 1765)
Z:Transcribed and edited by Flynn Titford-Mock, 2007
Z:abc's:AK/Fiddler's Companion
K:Bb
BdBG | AcA^F | G2 [G,2G2] [G,3G3]A
BGBd AFAc | B2 [B2b2][B3b3]B | BdBG A2F2 | EGEC D2F2 |
GEFG AFGA | [D2B2][D2B2][D4B4] :: Bdfb fdBd | A3c2 c4 | GBAc BcBG |
A2F2F2"tr"ED | EgcB | FAdc | GBed cB A2 | GBAc dBcA | F2A2 B4 :|

